X:175
T:Fiddler's Walk
M:2/4
L:1/16
F:http://blackrosetheband.googlepages.com/ABCTUNES.ABC May 2009
C:by Rick Weidley
S:copyright September 26, 1994
K:A
|:"A"(cd)dd (cd)dd | (cd)dd "D"(3(dcB) (3(dcB) | "A"(cd)dd (cd)dd | (cd)dd "D"(3(dcB) (3(dcB) |
"A"(cd)dd (cd)dd | (cd)dd "D"(3(dcB) (3(dcB) |1 "A"(cd)dd edcd | "E"B2 BB B z2 :|2 "A"(cd)dd "E"edcB | "A"A2 AB A2z2||
"D"(fg)gg agfa | "G"gfga "D"f2 ff | "D"(fg)gg agfa | "A"efge cBA2 |
"D"(fg)gg agfa | "G"gfga "D"f2 ff | "D"(fg)gg agfa | "E"e2 ee e2 ee ||
"A"(cd)dd (cd)dd | (cd)dd "D"(3(dcB) (3(dcB) | "A"(cd)dd (cd)dd | (cd)dd "D"(3(dcB) (3(dcB) |
"A"(cd)dd (cd)dd | (cd)dd "D"(3(dcB) (3(dcB) | "A"(cd)dd "E"edcB | "A"A2 AB A2z2 ||
